!!!OTL: PETERSILJE DU SCHOENES KRAUT
!!!ARE: Europa, Mitteleuropa, Deutschland, Mark, Nauen, Vietzin
!!!SCT: E0573B
!!!YEM: Copyright 1995, estate of Helmut Schaffrath.
**kern
*ICvox
*Ivox
*M2/4
*k[f#]
*G:
=1
{8.dd
16cc
8b
8b
=2
8a
8a
8g}
{8g
=3
8a
8a
8b
8dd
=4
16dd
16cc
8b
4a}
=5
{8.a
16b
8cc
8a
=6
8b
8ee
8dd}
{8dd
=7
8.cc
16b
8a
8dd
=8
8b
8a
4g}
=9
{8.a
16b
8cc
8a
=10
8b
8ee
8dd}
{8dd
=11
8.cc
16b
8a
8dd
=12
8b
8a
4g}
==
!!!AGN: Liebes - Lied
!!!ONB: ESAC (Essen Associative Code) Database: ERK1
!!!AMT: simple duple
!!!AIN: vox
!!!EED: Helmut Schaffrath
!!!EEV: 1.0
*-
